X:1
T:G Major Jacob French, 1802
T:Robert Seagrave, 1742 Pilgrim's Song  76. 76. 77. 76.
T:Cælestis
T:Transcribed from Harmony of Harmony, 1802
%%score [ 1 2 3 4 ]
L:1/8
Q:1/4=80
M:2/4
K:G
V:1 treble nm="Treble" snm="Tr."
V:2 treble nm="Counter" snm="C."
V:3 treble-8 nm="Tenor" snm="T."
V:4 bass nm="Bass" snm="B."
V:1
 B3 [GB] | A3 G | d2 d2 | Bc dd | d2 dB | e2 d2 | d4 | Bd dB | dg d2 | GB A2 | A3 c | Bc dc | %12
w: 1.~Rise, my|soul, and|stretch thy|wings,~ _ _ Thy|bet- ter *|por- tion|trace;|Rise * from *|tran- * si-|to- * ry|thing, Towards|heaav'n, * thy *|
 B2 A2 | A4 |:[M:2/2] B2 B>c d2 d>c | B2 B2 [Gc]4 | e2 e2 e>d c>B | A2 A2 A4 |[M:2/4] Bd d^c | %19
w: na- tive|place.|Sun and * moon and *|stars de- cay,|Time shall soon * this *|earth re- move;|Rise, * my *|
 dg d2 | dc B2 | g>f ec | dc BA | G2 [Ad]2 |1 B4 :|2 B4- || B4 |] %27
w: soul, * and|haste * a-|way, * * to|seats * pre- *|pared a-|bove.|||
V:2
 D3 G | F3 E | DG F2 | G/F/ED/E/F | G2 FE | A2 G2 | F4 | DG DG | FE D2 | DG FE | F3 G/F/ | E2 A2 | %12
w: 2.~Ri- vers|to the|o- * cean|run,~ _ _ _ _ nor|stay in *|all their|course;|Fire * a- *|scen- * ding|seeks * the *|sun, Both *|speed them|
 G>F E2 | F4 |:[M:2/2] G2 G2 G2 G2 | D2 D2 E4 | A2 A2 A>G F>E | D2 ^C2 D4 |[M:2/4] DG DG | FE D2 | %20
w: to * their|course;|So a soul that's|born of God,|Pants to view * his *|glo- rious face;|Up- * ward *|tends * to|
 (3GFE D2 | G3 A | BA (3GFE | D2 [DF]2 |1 [DG]4 :|2 [DG]4- || [DG]4 |] %27
w: his * * a-|bode, To|rest * in * *|his em-|brace.|||
V:3
 G3 B/c/ | d3 c | B2 A2 | G>A GA | B2 AG | c2 B2 | A4 | GB AG | Ac BA | Bd ^c2 | d3 e/f/ | g2 f2 | %12
w: 3.~Cease, ye *|pil- grims,|cease to|mourn,~ _ _ Press|on- ward *|to the|prize;|Soon * our *|Sa- * vior *|will * re-|turn, Tri- *|um- phant|
 ed ^c2 | d4 |:[M:2/2] d2 d>c B2 B>A | G2 G>F E4 | c2 c>B A2 A>G | F2 F>E D4 |[M:2/4] GB AG | %19
w: in * the|skies;|Yet a * sea- son *|and you * know|Hap- py * en- trance *|will be * given;|All * our *|
 Ac BA | Bc d2 | e3 f | (3gfe dc | B2 (3AGA |1 G4 :|2 G4- || G4 |] %27
w: sor- * rowws *|cast * be-|low, And|earth * * ex- *|changed for * *|heaven.|||
V:4
 G,,3 G,, | D,3 E,/F,/ | G,2 D,2 | G,,C,B,,/C,/D, | G,2 D,E, | C,2 G,,2 | D,4 | G,,G, F,E, | %8
 D,E,/F,/ G,F, | G,2 A,2 | D,3 C,/D,/ | E,2 F,2 | G,2 A,2 | D,4 |:[M:2/2] G,2 G,2 G,2 G,2 | %15
 G,,2 G,,2 C,4 | [A,,A,]2 [A,,A,]2 [A,,A,]2 [G,,A,]2 | A,,2 A,,2 D,4 |[M:2/4] G,,G, F,E, | %19
 D,E,/F,/ G,F, | G,A, B,2 | C3 A, | G,A, B,C | D2 D,2 |1 [G,,G,]4 :|2 [G,,G,]4- || [G,,G,]4 |] %27

